src/status/16/si-syncthing-unknown.svg

<svg viewBox="0 0 16 16" xmlns="http://www.w3.org/2000/svg">
 <path d="M 8 1 A 7 7 0 0 0 1 8 7 7 0 0 0 1.00391 8.08398 1.5 1.5 0 0 0 0.050781 9.888672 1.5 1.5 0 0 0 1.679688 10.988281 7 7 0 0 0 8 15 7 7 0 0 0 11.841797 13.845703 1.5 1.5 0 0 0 13.560547 13.560547 1.5 1.5 0 0 0 13.845703 11.84375 7 7 0 0 0 15 8 7 7 0 0 0 14.554688 5.566406 1.5 1.5 0 0 0 14.949219 4.111328 1.5 1.5 0 0 0 13.408203 3.00195 1.5 1.5 0 0 0 13.11133 3.050781 1.5 1.5 0 0 0 12.984375 3.09375 7 7 0 0 0 8 1 z m 0 1 a 6 6 0 0 1 4.210938 1.734375 1.5 1.5 0 0 0 -0.160157 1.154297 1.5 1.5 0 0 0 0.0957 0.257813 L 10.145 7.148 A 1.5 1.5 0 0 0 8.439453 7.439453 1.5 1.5 0 0 0 8.03516 8.179688 L 2.84 8.828 A 1.5 1.5 0 0 0 2.00391 8.08789 6 6 0 0 1 2 8 6 6 0 0 1 8 2 z m 4.853516 3.853516 A 1.5 1.5 0 0 0 13.646484 5.992188 6 6 0 0 1 14 8 6 6 0 0 1 13.11133 11.128906 1.5 1.5 0 0 0 12.05273 11.07031 L 10.748 9.33 A 1.5 1.5 0 0 0 10.851562 7.855469 z M 8.160156 9.171875 A 1.5 1.5 0 0 0 8.439453 9.560547 1.5 1.5 0 0 0 9.947266 9.931641 L 11.252 11.672 A 1.5 1.5 0 0 0 11.132812 13.11133 6 6 0 0 1 8 14 6 6 0 0 1 2.574219 10.544922 1.5 1.5 0 0 0 2.962891 9.822266 z" style="fill:#2e3440;opacity:0.4;fill-opacity:1;stroke:none;fill-rule:nonzero"/>
</svg>

<svg viewBox="0 0 16 16" xmlns="http://www.w3.org/2000/svg">
 <path d="m8 1a7 7 0 0 0-7 7 7 7 0 0 0 0.00391 0.08398 1.5 1.5 0 0 0-0.95313 1.8047 1.5 1.5 0 0 0 1.6289 1.0996 7 7 0 0 0 6.3203 4.0117 7 7 0 0 0 3.8418-1.1543 1.5 1.5 0 0 0 1.7188-0.28516 1.5 1.5 0 0 0 0.28516-1.7168 7 7 0 0 0 1.1543-3.8438 7 7 0 0 0-0.44531-2.4336 1.5 1.5 0 0 0 0.39453-1.4551 1.5 1.5 0 0 0-1.541-1.1094 1.5 1.5 0 0 0-0.29687 0.048831 1.5 1.5 0 0 0-0.12696 0.042969 7 7 0 0 0-4.9844-2.0938zm0 1a6 6 0 0 1 4.2109 1.7344 1.5 1.5 0 0 0-0.16016 1.1543 1.5 1.5 0 0 0 0.0957 0.25781l-2.0015 2.0015a1.5 1.5 0 0 0-1.7055 0.29145 1.5 1.5 0 0 0-0.40429 0.74024l-5.1952 0.64831a1.5 1.5 0 0 0-0.83609-0.74011 6 6 0 0 1-0.00391-0.08789 6 6 0 0 1 6-6zm4.8535 3.8535a1.5 1.5 0 0 0 0.79297 0.13867 6 6 0 0 1 0.35352 2.0078 6 6 0 0 1-0.88867 3.1289 1.5 1.5 0 0 0-1.0586-0.058596l-1.3047-1.7403a1.5 1.5 0 0 0 0.10356-1.4745zm-4.6934 3.3184a1.5 1.5 0 0 0 0.2793 0.38867 1.5 1.5 0 0 0 1.5078 0.37109l1.3047 1.7404a1.5 1.5 0 0 0-0.11919 1.4393 6 6 0 0 1-3.1328 0.88867 6 6 0 0 1-5.4258-3.4551 1.5 1.5 0 0 0 0.38867-0.72266z" fill="#2e3440" opacity=".4"/>
</svg>
